X:1
T:Mount Your Horses
L:1/8
Q:1/4=120
M:2/4
I:linebreak $
K:Bb
V:1 treble 
V:1
"^Lively" BB/A/ BF | Bdfd | e>cBA | (B/A/B/c/ B>)F | BB/A/ BF | Bdfd | ecBA | B2 B2 :: ed d2 | %9
 cB B2 |$ ABcd | e/f/e/d/ c2 | ed d2 | cB B2 | Ae d/c/B/A/ | B2 B2 :: dddf | BBBd | =Bcec | BAGF |$ %20
 BB Bc/d/ | eeed | dcBA | B2 B2 :| %24
